X: 14667
T: Gan Ainm
R: polka
M: 2/4
K: Gmajor
|:G2 GB|dB AB|c2 ce|ed Bd|
G2 GB|dB AB|cA EA|AG GA:|
|:g2 f2|ed Bd|c2 ce|ed Bd|
g2 f2|ed Bd|cA EA|AG GA:|

